pix_core/i/completion-manual-n.svg

<!DOCTYPE svg PUBLIC "-//W3C//DTD SVG 1.1//EN" "http://www.w3.org/Graphics/SVG/1.1/DTD/svg11.dtd" [
	<!ENTITY ns_flows "http://ns.adobe.com/Flows/1.0/">
]><svg xmlns="http://www.w3.org/2000/svg" width="16" height="16" viewBox="0 0 16 16" preserveAspectRatio="xMinYMid meet" overflow="visible"><path d="M14 0h-12c-1.1 0-2 .9-2 2v12c0 1.1.9 2 2 2h12c1.1 0 2-.9 2-2v-12c0-1.1-.9-2-2-2zm0 12c0 1.1-.9 2-2 2h-8c-1.1 0-2-.9-2-2v-8c0-1.1.9-2 2-2h8c1.1 0 2 .9 2 2v8z" fill="#888"/></svg>

<?xml version="1.0" encoding="utf-8"?>
<!-- Generator: Adobe Illustrator 15.1.0, SVG Export Plug-In  -->
<!DOCTYPE svg PUBLIC "-//W3C//DTD SVG 1.1//EN" "http://www.w3.org/Graphics/SVG/1.1/DTD/svg11.dtd" [
	<!ENTITY ns_flows "http://ns.adobe.com/Flows/1.0/">
]>
<svg version="1.1"
	 xmlns="http://www.w3.org/2000/svg" xmlns:xlink="http://www.w3.org/1999/xlink" xmlns:a="http://ns.adobe.com/AdobeSVGViewerExtensions/3.0/"
	 x="0px" y="0px" width="16px" height="16px" viewBox="0 0 16 16" style="overflow:visible;enable-background:new 0 0 16 16;"
	 xml:space="preserve" preserveAspectRatio="xMinYMid meet">
<defs>
</defs>
<path style="fill:#29a1c4;" d="M14,0H2C0.9,0,0,0.9,0,2v12c0,1.1,0.9,2,2,2h12c1.1,0,2-0.9,2-2V2C16,0.9,15.1,0,14,0z M14,12
	c0,1.1-0.9,2-2,2H4c-1.1,0-2-0.9-2-2V4c0-1.1,0.9-2,2-2h8c1.1,0,2,0.9,2,2V12z"/>
</svg>
